X: 37922
T: Southwest Wind, The
R: jig
M: 6/8
K: Dmajor
|:Ac/A/A A2d|cAG EFD|DGG DE/F/G|AGE =cAG|
Ac/A/A A2d|cAG EFD|DE/F/G AGE|FDD D3:|
|:e|fdd edd|fdd d2e|fdd e2d|cAG A2e|
fdd e2d|cAB =c2d|=cAG EF/G/E|FDD D2:|

